X:38
T:PARTEZ 4 CHAINEES
Z: Yves BELOTTEAU
M:4/4
L:1/4
Q:1/4=60
K:C
|Gc2d ec2c|d/2e/2dcB cded2|dcde c2cd/2e/2|dcBc ded2|
efgc e2d2|cd/2e/2dc ded2|efgc e2d2|GABA cc/2c/2cG|
cB/2A/2GG cB/2A/2GG|cc/2d/2ef g3g|gf/2e/2dg gf/2e/2dd|dfed d2d2|
